X:83
T: Járjad lábom, járd ki most
O: Lészped (Bákó), 1932
Q: 1/4=152
M:4/4
L:1/4
K:Eb
Fccc | dBc z | 
cBBA | G<F E z | 
B<c BA | G<E Fz | 
G<EFE | C<C C z | 

